src/assets/outline/BinanceUsd.svg

<svg width="24" height="24" viewBox="0 0 24 24"  xmlns="http://www.w3.org/2000/svg">
<path d="M8.33979 10.8309C8.01979 10.8309 7.69979 10.7109 7.45979 10.4609L5.7298 8.73086C5.2398 8.24086 5.2398 7.45086 5.7298 6.96086L10.8798 1.81086C11.3698 1.32086 12.1598 1.32086 12.6498 1.81086L14.3798 3.54086C14.8698 4.03086 14.8698 4.82086 14.3798 5.31086L9.2298 10.4609C8.9798 10.7109 8.65979 10.8309 8.33979 10.8309ZM6.95979 7.85086L8.33979 9.23086L13.1298 4.44086L11.7498 3.06086L6.95979 7.85086Z" />
<path d="M8.33979 18.6391C8.01979 18.6391 7.69979 18.5191 7.45979 18.2691L5.7298 16.5391C5.2398 16.0491 5.2398 15.2591 5.7298 14.7691L14.7798 5.71906C15.2698 5.22906 16.0598 5.22906 16.5498 5.71906L18.2798 7.44906C18.7698 7.93906 18.7698 8.72906 18.2798 9.21906L9.2298 18.2691C8.9798 18.5191 8.65979 18.6391 8.33979 18.6391ZM6.95979 15.6591L8.33979 17.0391L17.0398 8.33906L15.6598 6.95906L6.95979 15.6591Z" />
<path d="M12.2402 22.5395C11.9202 22.5395 11.6002 22.4195 11.3602 22.1695L9.6302 20.4395C9.1402 19.9495 9.1402 19.1595 9.6302 18.6695L18.6802 9.61945C19.1702 9.12945 19.9602 9.12945 20.4502 9.61945L22.1802 11.3495C22.6702 11.8395 22.6702 12.6295 22.1802 13.1195L13.1302 22.1695C12.8802 22.4195 12.5602 22.5395 12.2402 22.5395ZM10.8702 19.5595L12.2502 20.9395L20.9502 12.2395L19.5702 10.8595L10.8702 19.5595Z" />
<path d="M4.43992 14.7407C4.11992 14.7407 3.79991 14.6207 3.55991 14.3807L1.8299 12.6507C1.3399 12.1607 1.3399 11.3707 1.8299 10.8807L3.55991 9.1507C4.04991 8.6607 4.8399 8.6607 5.3299 9.1507L7.05991 10.8807C7.54991 11.3707 7.54991 12.1607 7.05991 12.6507L5.3299 14.3807C5.0799 14.6207 4.75992 14.7407 4.43992 14.7407ZM3.05991 11.7607L4.43992 13.1407L5.81992 11.7607L4.43992 10.3807L3.05991 11.7607Z" />
</svg>

<?xml version="1.0" encoding="UTF-8"?>
<svg width="24" height="24" viewBox="0 0 24 24" xmlns="http://www.w3.org/2000/svg">
 <path d="m8.3398 10.831c-0.32 0-0.64-0.12-0.88-0.37l-1.73-1.73c-0.49-0.49-0.49-1.28 0-1.77l5.15-5.15c0.49-0.49 1.28-0.49 1.77 0l1.73 1.73c0.49 0.49 0.49 1.28 0 1.77l-5.15 5.15c-0.25 0.25-0.57001 0.37-0.89001 0.37zm-1.38-2.98 1.38 1.38 4.79-4.79-1.38-1.38-4.79 4.79z"/>
 <path d="m8.3398 18.639c-0.32 0-0.64-0.12-0.88-0.37l-1.73-1.73c-0.49-0.49-0.49-1.28 0-1.77l9.05-9.05c0.49-0.49 1.28-0.49 1.77 0l1.73 1.73c0.49 0.49 0.49 1.28 0 1.77l-9.05 9.05c-0.25 0.25-0.57001 0.37-0.89001 0.37zm-1.38-2.98 1.38 1.38 8.7-8.7-1.38-1.38-8.7 8.7z"/>
 <path d="m12.24 22.54c-0.32 0-0.64-0.12-0.88-0.37l-1.73-1.73c-0.49-0.49-0.49-1.28 0-1.77l9.05-9.05c0.49-0.49 1.28-0.49 1.77 0l1.73 1.73c0.49 0.49 0.49 1.28 0 1.77l-9.05 9.05c-0.25 0.25-0.57 0.37-0.89 0.37zm-1.37-2.98 1.38 1.38 8.7-8.7-1.38-1.38-8.7 8.7z"/>
 <path d="m4.4399 14.741c-0.32 0-0.64001-0.12-0.88001-0.36l-1.73-1.73c-0.49-0.49-0.49-1.28 0-1.77l1.73-1.73c0.49-0.49 1.28-0.49 1.77 0l1.73 1.73c0.49 0.49 0.49 1.28 0 1.77l-1.73 1.73c-0.25 0.24-0.56998 0.36-0.88998 0.36zm-1.38-2.98 1.38 1.38 1.38-1.38-1.38-1.38-1.38 1.38z"/>
</svg>
